dist/img/twitter-md.svg

<svg width="18" height="14" viewBox="0 0 18 14" fill="none" xmlns="http://www.w3.org/2000/svg">
<path d="M6.93162 14.0002C6.22035 14.0002 5.48826 13.9426 4.75178 13.8272C3.45461 13.6236 2.14151 12.9451 1.76995 12.742L0.79541 12.2091L1.85051 11.8622C3.00386 11.4829 3.70546 11.2476 4.57396 10.8792C3.70433 10.4581 3.0341 9.70051 2.71148 8.72121L2.46602 7.97607L2.66731 8.00681C2.47644 7.81444 2.32573 7.61918 2.2089 7.44162C1.79341 6.81054 1.57343 6.03942 1.62024 5.3786L1.66642 4.7282L2.05581 4.87904C1.89154 4.56883 1.77283 4.23755 1.70306 3.89032C1.53302 3.04353 1.67533 2.14392 2.10387 1.35724L2.44306 0.734567L2.8967 1.27943C4.33139 3.00288 6.14858 4.02522 8.30533 4.32451C8.21723 3.71728 8.28324 3.13125 8.50171 2.60596C8.75608 1.99433 9.20858 1.4757 9.80992 1.10601C10.4778 0.69554 11.2877 0.496643 12.0904 0.545959C12.9421 0.598288 13.7153 0.917402 14.3295 1.46942C14.6294 1.39149 14.8504 1.3083 15.149 1.19586C15.3287 1.12822 15.5325 1.05142 15.7875 0.963581L16.7272 0.639824L16.1144 2.38987C16.1548 2.38648 16.1965 2.3836 16.24 2.38171L17.2434 2.33629L16.6504 3.14681C16.6164 3.19324 16.6077 3.20642 16.5956 3.22461C16.5478 3.29664 16.4884 3.38624 15.6743 4.47321C15.4705 4.74539 15.3688 5.0999 15.3877 5.47159C15.4599 6.88408 15.2866 8.16204 14.8723 9.26984C14.4806 10.3179 13.8735 11.2172 13.0681 11.9426C12.0715 12.8401 10.8006 13.4546 9.29078 13.7688C8.55015 13.9229 7.75481 14.0002 6.93162 14.0002Z" fill="#707070"/>
</svg>

<svg width="18" height="14" fill="none" xmlns="http://www.w3.org/2000/svg"><path d="M6.932 14c-.712 0-1.444-.057-2.18-.173-1.297-.203-2.61-.882-2.982-1.085l-.975-.533 1.056-.347c1.153-.38 1.854-.614 2.723-.983a3.623 3.623 0 01-1.863-2.158l-.245-.745.201.03a3.66 3.66 0 01-.458-.564c-.416-.631-.636-1.403-.589-2.063l.046-.65.39.15a3.64 3.64 0 01-.353-.989 3.762 3.762 0 01.4-2.533l.34-.622.454.544C4.33 3.003 6.149 4.025 8.305 4.325a3.235 3.235 0 01.197-1.719 3.218 3.218 0 011.308-1.5 3.93 3.93 0 012.28-.56 3.643 3.643 0 012.24.923c.3-.078.52-.16.819-.273.18-.068.384-.145.639-.232l.94-.324-.614 1.75a3.11 3.11 0 01.126-.008l1.003-.046-.593.81c-.034.047-.042.06-.054.079-.048.072-.108.161-.922 1.248a1.534 1.534 0 00-.286.999c.072 1.412-.101 2.69-.516 3.798a6.72 6.72 0 01-1.804 2.673c-.996.897-2.267 1.512-3.777 1.826-.74.154-1.536.231-2.36.231z" fill="#707070"/></svg>
